X:61
T:Dub Reel, The
R:reel
D:Michael McGoldrick: Morning Rory
M:C|
K:Ador
A2B/c/d eggf|gedB GABG|A2B/c/d eggf|gedB eBdB|
A2B/c/d eggf|gedB GABc|dBcA BGAF|GEDG EGBG:||
~A3B cBAG|EGDE GABG|~A3B cBAG|EGdB GABG|
~A3B cBAG|EGDE ~G3B|dBcA BGAF|GEDG EGBG:||
